X:051 
T:Duke of Leinster Hornpipe, The
S:Padraig O'Keeffe MS
F:file ID: cre.5/051duke_L
B:CRE5.223 (DiÃÂÃÂÃÂÃÂºc Laighean)
N:The Sliabh Luachra version of "Pretty Maggie Morrissey"
Q:150
M:C
R:hornpipe
K:G
Bc|dBGB AFDC|B,DEF GABc|dgfg efge|dBGB A2Bc|
dBGB AFDC|B,DEF GABc|dgfg ecAF|G2G2 G2:|
Bc|dgfg efge|dgfg efg2|g2fg efge|dBGB A2Bc|
dBGB AFDC|B,DEF GABc|dgfg ecAF|G2G2 G2:|